X:1
T:Title
%%score { 1 | 2 }
L:1/8
Q:1/4=104
M:4/4
K:G
V:1 treble nm="Grand Piano"
V:2 bass 
V:1
 G2 G>G G2 D2 | GFGA B2 G2 | [FA]2 [FA]>[FA] [FA]2 z2 | [FA][=F^G][^FA][=GB] [Ac]2 [FA]2 | %4
w: J.~H.~Rosecrans * * * *||||
 [DGB]2 [DGB]>[DAc] [DBd]2 [DGB]2 | [CEA]2 [CEA]>[D^GB] [EAc]2 [CEA]2 | %6
w: ||
 [B,DG]3 [DGB] [DGB][DA][B,DG][A,DF] | [B,DG]6 z2 | d4 B2 (3DGB | d4 B2 (3DGB | d2 ^c>d ed=cB | %11
w: |||||
 [GB]4 [FA]2 z2 | [Ac]4 [FA]2 z2 | [DAc]4 [DFA]2 z2 | [Ac]2 [Ac]>[Ac] [GB][FA][Bd][Ac] | B6 z2 | %16
w: |||||
 d4 B2 (3DGB | d4 B2 (3DGB | d2 ^c>d ed=cB | [GB]4 [FA]2 z2 | [Ac]4 [FA]2 z2 | [DAc]4 [DFA]2 z2 | %22
w: ||||||
 [Ac]2 [GB]>[FA] [Bd][Ac][GB][CDA] | [B,DG]6 z2 |] %24
w: ||
V:2
 [G,B,D]2 [G,B,D]>[G,B,D] [G,B,D]2 [G,B,]2 | [G,B,D][G,A,D][G,B,D][G,CD] [G,D]2 [G,B,D]2 | %2
 [D,D]2 [D,D]>[D,D] [D,D]2 [D,D]2 | [D,D][D,D][D,D][D,D] [D,D]2 [D,D]2 | G,2 G,>G, G,2 G,2 | %5
 C,2 C,>B,, A,,2 C,2 | D,3 D, D,D,D,D, | G,,6 z2 | [G,B,G]4 [G,DG]2 z2 | [G,B,G]4 [G,DG]2 z2 | %10
 [G,B,G]2 [G,_B,G]>[G,=B,G] [G,CG][G,B,G][G,A,G][G,G] | [D,D]4 [D,D]2 z2 | %12
 [D,D]4 [D,D]2[K:treble] (3DFA | D,4 D,2[K:treble] (3DFA | %14
 [D,D]2 [D,D]>[D,D] [D,D][D,D][D,D][D,D] | [G,DG]6 z2 | [G,B,G]4 [G,DG]2 z2 | [G,B,G]4 [G,DG]2 z2 | %18
 [G,B,G]2 [G,_B,G]>[G,=B,G] [G,CG][G,B,G][G,A,G][G,G] | [D,D]4 [D,D]2 z2 | %20
 [D,D]4 [D,D]2[K:treble] (3DFA | D,4 D,2[K:treble] (3DFA | [D,D]2 [D,D]>[D,D] [D,D][D,D][D,D]D, | %23
 G,,6 z2 |] %24

